ui/StatusQ/src/assets/img/icons/tiny/pin.svg

<svg fill="none" height="17" viewBox="0 0 16 17" width="16" xmlns="http://www.w3.org/2000/svg"><g fill="#000"><path clip-rule="evenodd" d="m8.75003 10.9168c0-.4858.3553-.8897.80836-1.06492 1.61621-.6252 2.76241-2.19433 2.76241-4.03116 0-2.38627-1.9345-4.32072-4.32076-4.32072-2.38627 0-4.32072 1.93445-4.32072 4.32072 0 1.83683 1.14619 3.40595 2.76236 4.03115.45306.17523.80835.57913.80835 1.06493v4.1487c0 .4276.33579.7743.75.7743s.75-.3467.75-.7743zm2.07077-5.09608c0 1.55784-1.26292 2.82072-2.82076 2.82072s-2.82072-1.26288-2.82072-2.82072 1.26288-2.82072 2.82072-2.82072 2.82076 1.26288 2.82076 2.82072z" fill-rule="evenodd"/><path d="m9.78599 5.38285c0-.59277-.46381-1.19898-1.03596-1.354s-1.03596.19985-1.03596.79262c0 .59278.46381 1.19899 1.03596 1.35401.57215.15501 1.03596-.19986 1.03596-.79263z"/></g></svg>

<svg width="16" height="17" viewBox="0 0 16 17" fill="none" xmlns="http://www.w3.org/2000/svg">
<path fill-rule="evenodd" clip-rule="evenodd" d="M8.75003 10.9168C8.75003 10.431 9.10533 10.0271 9.55839 9.85188C11.1746 9.22668 12.3208 7.65755 12.3208 5.82072C12.3208 3.43445 10.3863 1.5 8.00004 1.5C5.61377 1.5 3.67932 3.43445 3.67932 5.82072C3.67932 7.65755 4.82551 9.22667 6.44168 9.85187C6.89474 10.0271 7.25003 10.431 7.25003 10.9168V15.0655C7.25003 15.4931 7.58582 15.8398 8.00003 15.8398C8.41424 15.8398 8.75003 15.4931 8.75003 15.0655V10.9168ZM10.8208 5.82072C10.8208 7.37856 9.55788 8.64144 8.00004 8.64144C6.4422 8.64144 5.17932 7.37856 5.17932 5.82072C5.17932 4.26288 6.4422 3 8.00004 3C9.55788 3 10.8208 4.26288 10.8208 5.82072Z" fill="black"/>
<path d="M9.78599 5.38285C9.78599 4.79008 9.32218 4.18387 8.75003 4.02885C8.17788 3.87383 7.71407 4.2287 7.71407 4.82147C7.71407 5.41425 8.17788 6.02046 8.75003 6.17548C9.32218 6.33049 9.78599 5.97562 9.78599 5.38285Z" fill="black"/>
</svg>
